%Generated by HPGL2GCODE
(Start)
M03 S500
G4 P1
M03 S750
G4 P1
M03 S1000
G4 P2
(Initialize HP-GL/2-mode)
(PT0)
G21
G90
G94
F80.00
G00 Z1.0000
G00 X74.0000Y0.2000
G01 Z-0.3200
G01 X74.0000Y1.2500
G01 X71.6000Y1.2500
G01 X71.6000Y0.2000
G01 X74.0000Y0.2000
G00 Z1.0000
G00 X0.0000Y20.6000
G01 Z-0.3200
G01 X81.2000Y20.6000
G01 X81.2000Y-3.1000
G01 X69.0000Y-3.1000
G01 X69.0000Y0.0000
G01 X0.0000Y0.0000
G01 X0.0000Y20.6000
G00 Z1.0000
G00 X79.2000Y0.2000
G01 Z-0.3200
G01 X79.2000Y1.2500
G01 X76.8000Y1.2500
G01 X76.8000Y0.2000
G01 X79.2000Y0.2000
G00 Z1.0000
G00 X76.6250Y5.6250
G01 Z-0.3200
G01 X62.9750Y5.5500
G01 X61.9750Y12.5500
G01 X58.4750Y12.5500
G01 X58.4500Y11.2500
G01 X46.3250Y11.3000
G01 X46.3500Y17.8000
G01 X61.2750Y17.7250
G01 X61.2750Y18.7250
G00 Z1.0000
G00 X76.6500Y5.6250
G01 Z-0.3200
G01 X76.6500Y18.7500
G01 X70.3500Y18.7500
G01 X70.2250Y17.6000
G01 X73.6000Y17.6000
G01 X73.6000Y15.2000
G01 X72.2000Y15.2000
G01 X72.2000Y12.4000
G01 X73.6000Y12.4000
G01 X73.6000Y10.0000
G01 X64.6000Y10.0000
G01 X64.6000Y17.6000
G01 X67.9750Y17.6250
G01 X67.6750Y18.7250
G01 X61.2750Y18.7250
G00 Z1.0000
(Initialize HP-GL/2-mode)
(PT0)
G21
G90
G94
F80.00
G00 Z1.0000
G00 X74.0000Y0.2000
G01 Z-0.6400
G01 X74.0000Y1.2500
G01 X71.6000Y1.2500
G01 X71.6000Y0.2000
G01 X74.0000Y0.2000
G00 Z1.0000
G00 X0.0000Y20.6000
G01 Z-0.6400
G01 X81.2000Y20.6000
G01 X81.2000Y-3.1000
G01 X69.0000Y-3.1000
G01 X69.0000Y0.0000
G01 X0.0000Y0.0000
G01 X0.0000Y20.6000
G00 Z1.0000
G00 X79.2000Y0.2000
G01 Z-0.6400
G01 X79.2000Y1.2500
G01 X76.8000Y1.2500
G01 X76.8000Y0.2000
G01 X79.2000Y0.2000
G00 Z1.0000
G00 X76.6250Y5.6250
G01 Z-0.6400
G01 X62.9750Y5.5500
G01 X61.9750Y12.5500
G01 X58.4750Y12.5500
G01 X58.4500Y11.2500
G01 X46.3250Y11.3000
G01 X46.3500Y17.8000
G01 X61.2750Y17.7250
G01 X61.2750Y18.7250
G00 Z1.0000
G00 X76.6500Y5.6250
G01 Z-0.6400
G01 X76.6500Y18.7500
G01 X70.3500Y18.7500
G01 X70.2250Y17.6000
G01 X73.6000Y17.6000
G01 X73.6000Y15.2000
G01 X72.2000Y15.2000
G01 X72.2000Y12.4000
G01 X73.6000Y12.4000
G01 X73.6000Y10.0000
G01 X64.6000Y10.0000
G01 X64.6000Y17.6000
G01 X67.9750Y17.6250
G01 X67.6750Y18.7250
G01 X61.2750Y18.7250
G00 Z1.0000
(Initialize HP-GL/2-mode)
(PT0)
G21
G90
G94
F80.00
G00 Z1.0000
G00 X74.0000Y0.2000
G01 Z-0.9600
G01 X74.0000Y1.2500
G01 X71.6000Y1.2500
G01 X71.6000Y0.2000
G01 X74.0000Y0.2000
G00 Z1.0000
G00 X0.0000Y20.6000
G01 Z-0.9600
G01 X81.2000Y20.6000
G01 X81.2000Y-3.1000
G01 X69.0000Y-3.1000
G01 X69.0000Y0.0000
G01 X0.0000Y0.0000
G01 X0.0000Y20.6000
G00 Z1.0000
G00 X79.2000Y0.2000
G01 Z-0.9600
G01 X79.2000Y1.2500
G01 X76.8000Y1.2500
G01 X76.8000Y0.2000
G01 X79.2000Y0.2000
G00 Z1.0000
G00 X76.6250Y5.6250
G01 Z-0.9600
G01 X62.9750Y5.5500
G01 X61.9750Y12.5500
G01 X58.4750Y12.5500
G01 X58.4500Y11.2500
G01 X46.3250Y11.3000
G01 X46.3500Y17.8000
G01 X61.2750Y17.7250
G01 X61.2750Y18.7250
G00 Z1.0000
G00 X76.6500Y5.6250
G01 Z-0.9600
G01 X76.6500Y18.7500
G01 X70.3500Y18.7500
G01 X70.2250Y17.6000
G01 X73.6000Y17.6000
G01 X73.6000Y15.2000
G01 X72.2000Y15.2000
G01 X72.2000Y12.4000
G01 X73.6000Y12.4000
G01 X73.6000Y10.0000
G01 X64.6000Y10.0000
G01 X64.6000Y17.6000
G01 X67.9750Y17.6250
G01 X67.6750Y18.7250
G01 X61.2750Y18.7250
G00 Z1.0000
(Initialize HP-GL/2-mode)
(PT0)
G21
G90
G94
F80.00
G00 Z1.0000
G00 X74.0000Y0.2000
G01 Z-1.2800
G01 X74.0000Y1.2500
G01 X71.6000Y1.2500
G01 X71.6000Y0.2000
G01 X74.0000Y0.2000
G00 Z1.0000
G00 X0.0000Y20.6000
G01 Z-1.2800
G01 X81.2000Y20.6000
G01 X81.2000Y-3.1000
G01 X69.0000Y-3.1000
G01 X69.0000Y0.0000
G01 X0.0000Y0.0000
G01 X0.0000Y20.6000
G00 Z1.0000
G00 X79.2000Y0.2000
G01 Z-1.2800
G01 X79.2000Y1.2500
G01 X76.8000Y1.2500
G01 X76.8000Y0.2000
G01 X79.2000Y0.2000
G00 Z1.0000
G00 X76.6250Y5.6250
G01 Z-1.2800
G01 X62.9750Y5.5500
G01 X61.9750Y12.5500
G01 X58.4750Y12.5500
G01 X58.4500Y11.2500
G01 X46.3250Y11.3000
G01 X46.3500Y17.8000
G01 X61.2750Y17.7250
G01 X61.2750Y18.7250
G00 Z1.0000
G00 X76.6500Y5.6250
G01 Z-1.2800
G01 X76.6500Y18.7500
G01 X70.3500Y18.7500
G01 X70.2250Y17.6000
G01 X73.6000Y17.6000
G01 X73.6000Y15.2000
G01 X72.2000Y15.2000
G01 X72.2000Y12.4000
G01 X73.6000Y12.4000
G01 X73.6000Y10.0000
G01 X64.6000Y10.0000
G01 X64.6000Y17.6000
G01 X67.9750Y17.6250
G01 X67.6750Y18.7250
G01 X61.2750Y18.7250
G00 Z1.0000
(Initialize HP-GL/2-mode)
(PT0)
G21
G90
G94
F80.00
G00 Z1.0000
G00 X74.0000Y0.2000
G01 Z-1.6000
G01 X74.0000Y1.2500
G01 X71.6000Y1.2500
G01 X71.6000Y0.2000
G01 X74.0000Y0.2000
G00 Z1.0000
G00 X0.0000Y20.6000
G01 Z-1.6000
G01 X81.2000Y20.6000
G01 X81.2000Y-3.1000
G01 X69.0000Y-3.1000
G01 X69.0000Y0.0000
G01 X0.0000Y0.0000
G01 X0.0000Y20.6000
G00 Z1.0000
G00 X79.2000Y0.2000
G01 Z-1.6000
G01 X79.2000Y1.2500
G01 X76.8000Y1.2500
G01 X76.8000Y0.2000
G01 X79.2000Y0.2000
G00 Z1.0000
G00 X76.6250Y5.6250
G01 Z-1.6000
G01 X62.9750Y5.5500
G01 X61.9750Y12.5500
G01 X58.4750Y12.5500
G01 X58.4500Y11.2500
G01 X46.3250Y11.3000
G01 X46.3500Y17.8000
G01 X61.2750Y17.7250
G01 X61.2750Y18.7250
G00 Z1.0000
G00 X76.6500Y5.6250
G01 Z-1.6000
G01 X76.6500Y18.7500
G01 X70.3500Y18.7500
G01 X70.2250Y17.6000
G01 X73.6000Y17.6000
G01 X73.6000Y15.2000
G01 X72.2000Y15.2000
G01 X72.2000Y12.4000
G01 X73.6000Y12.4000
G01 X73.6000Y10.0000
G01 X64.6000Y10.0000
G01 X64.6000Y17.6000
G01 X67.9750Y17.6250
G01 X67.6750Y18.7250
G01 X61.2750Y18.7250
G00 Z1.0000
(Ende)
G80
G90
G00 Z10 X0 Y0
M05
M09
M30