%Generated by HPGL2GCODE
(Start)
M03 S500
G4 P1
M03 S750
G4 P1
M03 S1000
G4 P2
(Initialize HP-GL/2-mode)
(PT0)
G21
G90
G94
F80.00
G00 Z1.0000
G00 X38.8500Y22.0500
G01 Z-0.3000
G01 X38.8500Y-0.0250
G01 X0.0000Y0.0000
G01 X0.0000Y22.0000
G01 X38.8500Y22.0500
G00 Z1.0000
(Initialize HP-GL/2-mode)
(PT0)
G21
G90
G94
F80.00
G00 Z1.0000
G00 X38.8500Y22.0500
G01 Z-0.6000
G01 X38.8500Y-0.0250
G01 X0.0000Y0.0000
G01 X0.0000Y22.0000
G01 X38.8500Y22.0500
G00 Z1.0000
(Initialize HP-GL/2-mode)
(PT0)
G21
G90
G94
F80.00
G00 Z1.0000
G00 X38.8500Y22.0500
G01 Z-0.9000
G01 X38.8500Y-0.0250
G01 X0.0000Y0.0000
G01 X0.0000Y22.0000
G01 X38.8500Y22.0500
G00 Z1.0000
(Initialize HP-GL/2-mode)
(PT0)
G21
G90
G94
F80.00
G00 Z1.0000
G00 X38.8500Y22.0500
G01 Z-1.2000
G01 X38.8500Y-0.0250
G01 X0.0000Y0.0000
G01 X0.0000Y22.0000
G01 X38.8500Y22.0500
G00 Z1.0000
(Initialize HP-GL/2-mode)
(PT0)
G21
G90
G94
F80.00
G00 Z1.0000
G00 X38.8500Y22.0500
G01 Z-1.5000
G01 X38.8500Y-0.0250
G01 X0.0000Y0.0000
G01 X0.0000Y22.0000
G01 X38.8500Y22.0500
G00 Z1.0000
(Ende)
G80
G90
G00 Z10 X0 Y0
M05
M09
M30